icons/Map/caravan-line.svg

<svg viewBox="0 0 24 24" xmlns="http://www.w3.org/2000/svg"><path d="M14.1716 3C14.702 3 15.2107 3.21071 15.5858 3.58579L20.4142 8.41421C20.7893 8.78929 21 9.29799 21 9.82843V17H23V19L14.8738 19.0008C14.4295 20.7256 12.8636 22 11 22C9.13643 22 7.57052 20.7256 7.12621 19.0008L3 19C2.44772 19 2 18.5523 2 18V5C2 3.89543 2.89543 3 4 3H14.1716ZM11 16C9.89543 16 9 16.8954 9 18C9 19.1046 9.89543 20 11 20C12.1046 20 13 19.1046 13 18C13 16.8954 12.1046 16 11 16ZM14.1716 5H4V17L7.12595 17.0002C7.56991 15.2749 9.13607 14 11 14C12.8639 14 14.4301 15.2749 14.874 17.0002L19 17V9.82843L14.1716 5ZM14 7V13H6V7H14ZM12 9H8V11H12V9Z"/></svg>

<svg xmlns="http://www.w3.org/2000/svg" viewBox="0 0 24 24">
    <g>
        <path fill="none" d="M0 0L24 0 24 24 0 24z"/>
        <path d="M14.172 3c.53 0 1.039.21 1.414.586l4.828 4.828c.375.375.586.884.586 1.414V17h2v2h-8.126c-.445 1.726-2.01 3-3.874 3-1.864 0-3.43-1.274-3.874-3H3c-.552 0-1-.448-1-1V5c0-1.105.895-2 2-2h10.172zM11 16c-1.105 0-2 .895-2 2s.895 2 2 2 2-.895 2-2-.895-2-2-2zm3.172-11H4v12h3.126c.444-1.725 2.01-3 3.874-3 1.864 0 3.43 1.275 3.874 3H19V9.828L14.172 5zM14 7v6H6V7h8zm-2 2H8v2h4V9z"/>
    </g>
</svg>
